X:1
T:Star of County Down
M:4/4
L:1/8
C:Irish
K:C
E/G/|AAAG/A/ cc dc/d/|ed/c/ AG/E/ G2 z E/G/|AA AG/A/ cc dc/d/|
ed/c/ AA A2z e/e/|ge ed/c/ dd dc/d/| ed/c/ AG/E/ G2 z E/G/|
AA AG/A/ cc dc/d/|cB/A/ AAA2 z e/e/|ge ed/c/ dd dc/d/|
ed/c/ AG/E/ G2 z E/G/|AA AG/A/ cc dc/d/|ed/c/ AA A2 z||

